svg/u1f23a.svg

<svg viewBox="0 0 128 128" xmlns="http://www.w3.org/2000/svg">
  <g>
    <path d="M116,4H12c-4.42,0-8,3.58-8,8v104c0,4.42,3.58,8,8,8h104c4.42,0,8-3.58,8-8V12 C124,7.58,120.42,4,116,4z" fill="#F77E00"/>
    <path d="M109.7,4H11.5C7.37,4.03,4.03,7.37,4,11.5v97.9c-0.01,4.14,3.34,7.49,7.48,7.5c0.01,0,0.01,0,0.02,0 h98.1c4.14,0.01,7.49-3.34,7.5-7.48c0-0.01,0-0.01,0-0.02V11.5c0.09-4.05-3.13-7.41-7.18-7.5C109.85,4,109.77,4,109.7,4z" fill="#FF9800"/>
    <path d="M39.7,12.9c0-2.3-1.6-3-10.8-2.7c-7.7,0.3-11.5,1.2-13.8,4 s-2.9,8.5-3,15.3c0,4.8,0,9.3,2.5,9.3c3.4,0,3.4-7.9,6.2-12.3C26.2,17.8,39.7,15.9,39.7,12.9z" opacity="0.75" fill="#FFBD52" enable-background="new "/>
    <path d="M102.1,37v15.7c0,1.1-0.9,2-2,2h-4.2c-1.1,0-2-0.9-2-2v-8.4c0-0.5-0.4-0.9-0.9-0.9l0,0H34.7 c-0.5,0-0.9,0.4-0.9,0.9v0v8.4c0,1.1-0.9,2-2,2h-3.9c-1.1,0-2-0.9-2-2V37c0-0.5,0.4-0.9,0.9-0.9h0h9.6c0.51,0,0.93-0.42,0.93-0.93 c0-0.16-0.04-0.33-0.13-0.47c-1.36-2.26-2.87-4.43-4.5-6.5c-0.68-0.91-0.48-2.2,0.43-2.88c0.12-0.09,0.24-0.16,0.37-0.22l3.7-1.5 c0.8-0.3,1.7-0.1,2.3,0.5c2,2.3,5.7,8,7.4,10.6c0.55,0.85,1.49,1.37,2.5,1.4H59c0.55-0.03,0.97-0.5,0.95-1.05 c0-0.08-0.02-0.17-0.05-0.25c-1.33-3.02-2.91-5.93-4.7-8.7c-0.59-0.89-0.35-2.09,0.54-2.68c0.14-0.09,0.3-0.17,0.46-0.22 c1.2-0.4,2.6-0.9,3.6-1.3c0.84-0.3,1.77-0.02,2.3,0.7c1.8,2.6,5.8,9.3,7.4,12.1c0.46,0.79,1.29,1.28,2.2,1.3h6.9 c0.27,0.03,0.53-0.09,0.7-0.3c2.86-3.79,5.47-7.76,7.8-11.9c0.47-0.79,1.4-1.19,2.3-1l4.8,1.5c1.05,0.33,1.64,1.46,1.3,2.51 c-0.07,0.21-0.17,0.41-0.3,0.59c-1.9,2.5-3.8,4.9-5.6,7.1c-0.33,0.38-0.28,0.96,0.1,1.28c0.17,0.14,0.38,0.22,0.6,0.22h10.8 C101.65,36,102.1,36.45,102.1,37z M66.8,71.5c-0.7,1.6-1.3,3.3-1.9,4.8c-0.17,0.52,0.11,1.09,0.64,1.26 c0.05,0.02,0.11,0.03,0.16,0.04h28.1c1.1,0,2,0.9,2,2v24.6c0,1.1-0.9,2-2,2h-4.6c-1.1,0-2-0.9-2-2v-0.3c0-0.5-0.4-0.9-0.9-0.9l0,0 H42.1c-0.5,0-0.9,0.4-0.9,0.9l0,0v0.4c0,1.1-0.9,2-2,2H35c-1.1,0-2-0.9-2-2V79.5c0-1.1,0.9-2,2-2h20.3c0.42-0.02,0.78-0.3,0.9-0.7 c0.5-1.6,0.9-3.2,1.3-4.8c0.14-0.5-0.14-1.02-0.64-1.16c-0.08-0.02-0.17-0.04-0.26-0.04H41.9c-1.1,0-2-0.9-2-2V51.3 c0-1.1,0.9-2,2-2H86c1.1,0,2,0.9,2,2v17.6c0,1.1-0.9,2-2,2H67.6C67.22,70.87,66.88,71.13,66.8,71.5z M86.3,85H42.1 c-0.5,0-0.9,0.4-0.9,0.9l0,0v8.7c0,0.5,0.4,0.9,0.9,0.9h0h44.2c0.5,0,0.9-0.4,0.9-0.9l0,0v-8.7C87.2,85.4,86.8,85,86.3,85L86.3,85z M48.7,64.5h30c0.5,0,0.9-0.4,0.9-0.9v0v-7c0-0.5-0.4-0.9-0.9-0.9l0,0h-30c-0.5,0-0.9,0.4-0.9,0.9v0v7 C47.85,64.08,48.22,64.45,48.7,64.5z" fill="#FAFAFA"/>
  </g>
</svg>

<svg viewBox="0 0 128 128" xmlns="http://www.w3.org/2000/svg">
  <defs/>
  <path d="M116,4 L12,4 C7.58,4 4,7.58 4,12 L4,116 C4,120.42 7.58,124 12,124 L116,124 C120.42,124 124,120.42 124,116 L124,12 C124,7.58 120.42,4 116,4 Z" fill="#F77E00"/>
  <path d="M109.7,4 L11.5,4 C7.37,4.03 4.03,7.37 4,11.5 L4,109.4 C3.99,113.54 7.34,116.89 11.48,116.9 C11.49,116.9 11.49,116.9 11.5,116.9 L109.6,116.9 C113.74,116.91 117.09,113.56 117.1,109.42 C117.1,109.41 117.1,109.41 117.1,109.4 L117.1,11.5 C117.19,7.45 113.97,4.09 109.92,4 C109.85,4 109.77,4 109.7,4 Z" fill="#FF9800"/>
  <path d="M39.7,12.9 C39.7,10.6 38.1,9.9 28.9,10.2 C21.2,10.5 17.4,11.4 15.1,14.2 C12.8,17 12.2,22.7 12.1,29.5 C12.1,34.3 12.1,38.8 14.6,38.8 C18,38.8 18,30.9 20.8,26.5 C26.2,17.8 39.7,15.9 39.7,12.9 Z" fill="#FFBD52" opacity="0.75"/>
  <path d="M102.1,37 L102.1,52.7 C102.1,53.8 101.2,54.7 100.1,54.7 L95.9,54.7 C94.8,54.7 93.9,53.8 93.9,52.7 L93.9,44.3 C93.9,43.8 93.5,43.4 93,43.4 L93,43.4 L34.7,43.4 C34.2,43.4 33.8,43.8 33.8,44.3 L33.8,44.3 L33.8,52.7 C33.8,53.8 32.9,54.7 31.8,54.7 L27.9,54.7 C26.8,54.7 25.9,53.8 25.9,52.7 L25.9,37 C25.9,36.5 26.3,36.1 26.8,36.1 L26.8,36.1 L36.4,36.1 C36.91,36.1 37.33,35.68 37.33,35.17 C37.33,35.01 37.29,34.84 37.2,34.7 C35.84,32.44 34.33,30.27 32.7,28.2 C32.02,27.29 32.22,26 33.13,25.32 C33.25,25.23 33.37,25.16 33.5,25.1 L37.2,23.6 C38,23.3 38.9,23.5 39.5,24.1 C41.5,26.4 45.2,32.1 46.9,34.7 C47.45,35.55 48.39,36.07 49.4,36.1 L59,36.1 C59.55,36.07 59.97,35.6 59.95,35.05 C59.95,34.97 59.93,34.88 59.9,34.8 C58.57,31.78 56.99,28.87 55.2,26.1 C54.61,25.21 54.85,24.01 55.74,23.42 C55.88,23.33 56.04,23.25 56.2,23.2 C57.4,22.8 58.8,22.3 59.8,21.9 C60.64,21.6 61.57,21.88 62.1,22.6 C63.9,25.2 67.9,31.9 69.5,34.7 C69.96,35.49 70.79,35.98 71.7,36 L78.6,36 C78.87,36.03 79.13,35.91 79.3,35.7 C82.16,31.91 84.77,27.94 87.1,23.8 C87.57,23.01 88.5,22.61 89.4,22.8 L94.2,24.3 C95.25,24.63 95.84,25.76 95.5,26.81 C95.43,27.02 95.33,27.22 95.2,27.4 C93.3,29.9 91.4,32.3 89.6,34.5 C89.27,34.88 89.32,35.46 89.7,35.78 C89.87,35.92 90.08,36 90.3,36 L101.1,36 C101.65,36 102.1,36.45 102.1,37 Z M66.8,71.5 C66.1,73.1 65.5,74.8 64.9,76.3 C64.73,76.82 65.01,77.39 65.54,77.56 C65.59,77.58 65.65,77.59 65.7,77.6 L93.8,77.6 C94.9,77.6 95.8,78.5 95.8,79.6 L95.8,104.2 C95.8,105.3 94.9,106.2 93.8,106.2 L89.2,106.2 C88.1,106.2 87.2,105.3 87.2,104.2 L87.2,103.9 C87.2,103.4 86.8,103 86.3,103 L86.3,103 L42.1,103 C41.6,103 41.2,103.4 41.2,103.9 L41.2,103.9 L41.2,104.3 C41.2,105.4 40.3,106.3 39.2,106.3 L35,106.3 C33.9,106.3 33,105.4 33,104.3 L33,79.5 C33,78.4 33.9,77.5 35,77.5 L55.3,77.5 C55.72,77.48 56.08,77.2 56.2,76.8 C56.7,75.2 57.1,73.6 57.5,72 C57.64,71.5 57.36,70.98 56.86,70.84 C56.78,70.82 56.69,70.8 56.6,70.8 L41.9,70.8 C40.8,70.8 39.9,69.9 39.9,68.8 L39.9,51.3 C39.9,50.2 40.8,49.3 41.9,49.3 L86,49.3 C87.1,49.3 88,50.2 88,51.3 L88,68.9 C88,70 87.1,70.9 86,70.9 L67.6,70.9 C67.22,70.87 66.88,71.13 66.8,71.5 Z M86.3,85 L42.1,85 C41.6,85 41.2,85.4 41.2,85.9 L41.2,85.9 L41.2,94.6 C41.2,95.1 41.6,95.5 42.1,95.5 L42.1,95.5 L86.3,95.5 C86.8,95.5 87.2,95.1 87.2,94.6 L87.2,94.6 L87.2,85.9 C87.2,85.4 86.8,85 86.3,85 L86.3,85 Z M48.7,64.5 L78.7,64.5 C79.2,64.5 79.6,64.1 79.6,63.6 L79.6,63.6 L79.6,56.6 C79.6,56.1 79.2,55.7 78.7,55.7 L78.7,55.7 L48.7,55.7 C48.2,55.7 47.8,56.1 47.8,56.6 L47.8,56.6 L47.8,63.6 C47.85,64.08 48.22,64.45 48.7,64.5 Z" fill="#FAFAFA"/>
</svg>
